X: 542
T: New York the new way
M:3/2
L:1/8
S: 8: MCJLSH3 http://www.cpartington.plus.com/links/Walsh.abc
Z: Pete Stewart 2004
B: Walsh "Third Book of the most Celebrated jiggs, Lancashire hornpipes, ..."
K:GMin
EGFE DFED C3B | ABcd c3C DEFD | EGFE DEFD C3c | FBAc B3B, DEFD ||
E2G2_AGFE DEFD | CcBd c3C DEFD | E2G2_AGFE DEFD | B,BAc B3B, DEFD ||
B2d2 edcB ABcA | GcBd c3C DEFD | E2d2edcB ABcA | FBAcB3B, DEFD ||
BGEG FDB,D C3c | ABcdc3C DEFD | BGEG FDB,D C3e | d2B2B3B, DEFD ||

%%sep 1 1 500
%%sep 1 1 500
